public/avatar/body/56.svg

<svg xmlns:xlink="http://www.w3.org/1999/xlink" height="82" width="84.85" xmlns="http://www.w3.org/2000/svg"><g transform="translate(37.4 42.25)"><use height="38" transform="translate(-11.95 -17.45)" width="32.05" xlink:href="#a"/><use height="38.95" transform="translate(-12.45 -17.95)" width="33.05" xlink:href="#b"/><use height="13.05" transform="translate(-11.7 10.2)" width="32.25" xlink:href="#c"/></g><defs><path d="M27.35 7.4q2.15 4.15 3.55 8.75 1.45 4.7 1.15 9.5-.35 4.95-4.2 8.1-3.8 3.2-8.75 4.05l-2.6.2q-3.6 0-7.05-1.15-4.65-1.6-7.1-5.5Q-.2 27.4.05 23q.2-4.4 2-9.3Q3.85 8.75 7 5.05 10.1 1.3 14.7.1l1.8-.1q1.9.05 3.7.8 4.75 2.05 7.15 6.6" fill="#fff" fill-rule="evenodd" transform="translate(-.05)" id="d"/><path d="M27.35 7.4Q24.95 2.85 20.2.8 17.55-.3 14.7.1 10.1 1.3 7 5.05q-3.15 3.7-4.95 8.65-1.8 4.9-2 9.3-.25 4.4 2.3 8.35 2.45 3.9 7.1 5.5 4.65 1.55 9.65.95 4.95-.85 8.75-4.05 3.85-3.15 4.2-8.1.3-4.8-1.15-9.5-1.4-4.6-3.55-8.75Z" fill="none" stroke="#000" stroke-linecap="round" stroke-linejoin="round" transform="translate(.45 .5)" id="e"/><use height="38" width="32.05" xlink:href="#d" id="a"/><use height="38.95" width="33.05" xlink:href="#e" id="b"/><g id="c"><path d="m19.55 10.95-.05.2-.4 1.55-.05.25q-.45 2.5.35 6.65l-.2.1q-1.95 1.1-3.9 1.8l-.7-8.65q2.5-.75 4.95-1.9M-6.6 22q-2.7-.7-4.6-2.15 1.6-3.3 1-6.25l-.1-.4-.3-.95-.15-.4-.35-.8V11l1.35.55 3.95 1.25.05.05L-6.6 22m-3.15-10.45-1.35-.5 1.35.5" fill="#ffdfaa" fill-rule="evenodd" transform="translate(11.7 -10.2)"/><path d="M13.9 21.95q-4.15 1.15-8.55.65l-.9-1.95-.4-.85-.2-.5H3.8l-.2.5-1.1 2.85h-.55l-.3.05H-1l-4.2-.4.9-9.1q9 2.15 17.45.05l.75 8.7M.05 18.7q1.75 1.05 3.55 1.1-1.8-.05-3.55-1.1m7.7-.15q-1.9 1.1-3.7 1.25 1.8-.15 3.7-1.25" fill="#ff6f04" fill-rule="evenodd" transform="translate(11.7 -10.2)"/><path d="m15.3 21.5-1.4.45-.75-8.7 1.45-.4.7 8.65m-20.5.8-.35-.05-.3-.05-.75-.2.85-9.15 1.45.35-.9 9.1" fill="#b00" fill-rule="evenodd" transform="translate(11.7 -10.2)"/><path d="m19.55 10.95.5-.25m-29.8.85 3.95 1.25.05.05 1.45.35q9 2.15 17.45.05l1.45-.4q2.5-.75 4.95-1.9m-30.65.1 1.35.5" fill="none" stroke="#eea57d" stroke-linecap="round" stroke-linejoin="round" transform="translate(11.7 -10.2)"/><path d="m19.55 10.95-.05.2M4.05 19.8H3.6q-1.8-.05-3.55-1.1m-11.15-7.65V11l1.35.55m13.8 8.25q1.8-.15 3.7-1.25" fill="none" stroke="#c13500" stroke-linecap="round" stroke-linejoin="round" transform="translate(11.7 -10.2)"/><path d="m19.5 11.15-.4 1.55-.05.25q-.45 2.5.35 6.65l-.2.1q-1.95 1.1-3.9 1.8l-1.4.45q-4.15 1.15-8.55.65l-.9-1.95-.4-.85m-.45 0-1.1 2.85h-.55l-.3.05H-1l-4.2-.4-.35-.05-.3-.05-.75-.2q-2.7-.7-4.6-2.15 1.6-3.3 1-6.25l-.1-.4-.3-.95-.15-.4-.35-.8" fill="none" stroke="#900" stroke-linecap="round" stroke-linejoin="round" transform="translate(11.7 -10.2)"/></g></defs></svg>

<?xml version="1.0" encoding="UTF-8" standalone="no"?>
<svg xmlns:xlink="http://www.w3.org/1999/xlink" height="82.0px" width="84.85px" xmlns="http://www.w3.org/2000/svg">
  <g transform="matrix(1.0, 0.0, 0.0, 1.0, 37.4, 42.25)">
    <use height="38.0" transform="matrix(1.0, 0.0, 0.0, 1.0, -11.95, -17.45)" width="32.05" xlink:href="#sprite0"/>
    <use height="38.95" transform="matrix(1.0, 0.0, 0.0, 1.0, -12.45, -17.95)" width="33.05" xlink:href="#sprite1"/>
    <use height="13.05" transform="matrix(1.0, 0.0, 0.0, 1.0, -11.7, 10.2)" width="32.25" xlink:href="#shape2"/>
  </g>
  <defs>
    <g id="sprite0" transform="matrix(1.0, 0.0, 0.0, 1.0, -0.05, 0.0)">
      <use height="38.0" transform="matrix(1.0, 0.0, 0.0, 1.0, 0.05, 0.0)" width="32.05" xlink:href="#shape0"/>
    </g>
    <g id="shape0" transform="matrix(1.0, 0.0, 0.0, 1.0, -0.05, 0.0)">
      <path d="M27.35 7.4 Q29.5 11.55 30.9 16.15 32.35 20.85 32.05 25.65 31.7 30.6 27.85 33.75 24.05 36.95 19.1 37.8 L16.5 38.0 Q12.9 38.0 9.45 36.85 4.8 35.25 2.35 31.35 -0.2 27.4 0.05 23.0 0.25 18.6 2.05 13.7 3.85 8.75 7.0 5.05 10.1 1.3 14.7 0.1 L16.5 0.0 Q18.4 0.05 20.2 0.8 24.95 2.85 27.35 7.4" fill="#ffffff" fill-rule="evenodd" stroke="none"/>
    </g>
    <g id="sprite1" transform="matrix(1.0, 0.0, 0.0, 1.0, 0.45, 0.5)">
      <use height="38.95" transform="matrix(1.0, 0.0, 0.0, 1.0, -0.45, -0.5)" width="33.05" xlink:href="#shape1"/>
    </g>
    <g id="shape1" transform="matrix(1.0, 0.0, 0.0, 1.0, 0.45, 0.5)">
      <path d="M27.35 7.4 Q24.95 2.85 20.2 0.8 17.55 -0.3 14.7 0.1 10.1 1.3 7.0 5.05 3.85 8.75 2.05 13.7 0.25 18.6 0.05 23.0 -0.2 27.4 2.35 31.35 4.8 35.25 9.45 36.85 14.1 38.4 19.1 37.8 24.05 36.95 27.85 33.75 31.7 30.6 32.05 25.65 32.35 20.85 30.9 16.15 29.5 11.55 27.35 7.4 Z" fill="none" stroke="#000000" stroke-linecap="round" stroke-linejoin="round" stroke-width="1.0"/>
    </g>
    <g id="shape2" transform="matrix(1.0, 0.0, 0.0, 1.0, 11.7, -10.2)">
      <path d="M19.55 10.95 L19.5 11.15 19.1 12.7 19.05 12.95 Q18.6 15.45 19.4 19.6 L19.2 19.7 Q17.25 20.8 15.3 21.5 L14.6 12.85 Q17.1 12.1 19.55 10.95 M-6.6 22.0 Q-9.3 21.3 -11.2 19.85 -9.6 16.55 -10.2 13.6 L-10.3 13.2 -10.6 12.25 -10.75 11.85 -11.1 11.05 -11.1 11.0 -9.75 11.55 -5.8 12.8 -5.75 12.85 -6.6 22.0 M-9.75 11.55 L-11.1 11.05 -9.75 11.55" fill="#ffdfaa" fill-rule="evenodd" stroke="none"/>
      <path d="M13.9 21.95 Q9.75 23.1 5.35 22.6 L4.45 20.65 4.05 19.8 3.85 19.3 3.8 19.3 3.6 19.8 2.5 22.65 1.95 22.65 1.65 22.7 1.4 22.7 0.9 22.7 0.55 22.7 0.25 22.7 0.05 22.7 -0.75 22.7 -1.0 22.7 -5.2 22.3 -4.3 13.2 Q4.7 15.35 13.15 13.25 L13.9 21.95 M0.05 18.7 Q1.8 19.75 3.6 19.8 1.8 19.75 0.05 18.7 M7.75 18.55 Q5.85 19.65 4.05 19.8 5.85 19.65 7.75 18.55" fill="#ff6f04" fill-rule="evenodd" stroke="none"/>
      <path d="M15.3 21.5 L13.9 21.95 13.15 13.25 14.6 12.85 15.3 21.5 M-5.2 22.3 L-5.55 22.25 -5.85 22.2 -6.6 22.0 -5.75 12.85 -4.3 13.2 -5.2 22.3" fill="#bb0000" fill-rule="evenodd" stroke="none"/>
      <path d="M19.55 10.95 L20.05 10.7 M-9.75 11.55 L-5.8 12.8 -5.75 12.85 -4.3 13.2 Q4.7 15.35 13.15 13.25 L14.6 12.85 Q17.1 12.1 19.55 10.95 M-11.1 11.05 L-9.75 11.55" fill="none" stroke="#eea57d" stroke-linecap="round" stroke-linejoin="round" stroke-width="1.0"/>
      <path d="M19.55 10.95 L19.5 11.15 M4.05 19.8 L3.6 19.8 Q1.8 19.75 0.05 18.7 M-11.1 11.05 L-11.1 11.0 -9.75 11.55 M4.05 19.8 Q5.85 19.65 7.75 18.55" fill="none" stroke="#c13500" stroke-linecap="round" stroke-linejoin="round" stroke-width="1.0"/>
      <path d="M19.5 11.15 L19.1 12.7 19.05 12.95 Q18.6 15.45 19.4 19.6 L19.2 19.7 Q17.25 20.8 15.3 21.5 L13.9 21.95 Q9.75 23.1 5.35 22.6 L4.45 20.65 4.05 19.8 M3.6 19.8 L2.5 22.65 1.95 22.65 1.65 22.7 1.4 22.7 0.9 22.7 0.55 22.7 0.25 22.7 0.05 22.7 -0.75 22.7 -1.0 22.7 -5.2 22.3 -5.55 22.25 -5.85 22.2 -6.6 22.0 Q-9.3 21.3 -11.2 19.85 -9.6 16.55 -10.2 13.6 L-10.3 13.2 -10.6 12.25 -10.75 11.85 -11.1 11.05" fill="none" stroke="#990000" stroke-linecap="round" stroke-linejoin="round" stroke-width="1.0"/>
    </g>
  </defs>
</svg>
